src/main/resources/icons/KubernetesIcons/icons/customResources.svg

<svg width="16" height="16" viewBox="0 0 16 16" fill="none" xmlns="http://www.w3.org/2000/svg">
<path fill-rule="evenodd" clip-rule="evenodd" d="M5.27279 8.69141C5.59883 8.88004 5.81818 9.23257 5.81818 9.63633C5.81818 10.2388 5.32976 10.7272 4.72727 10.7272C4.12477 10.7272 3.63636 10.2388 3.63636 9.63633C3.63636 9.23251 3.85577 8.87994 4.18188 8.69132V7.45453L5.27279 7.45453V8.69141ZM6.51818 9.63633C6.51818 10.6254 5.71636 11.4272 4.72727 11.4272C3.73817 11.4272 2.93636 10.6254 2.93636 9.63633C2.93636 9.22577 3.07451 8.84748 3.30686 8.5454H2V13.9999L7.45455 14L7.45455 8.5454H6.14767C6.38002 8.84748 6.51818 9.22577 6.51818 9.63633Z" fill="#40B6E0" fill-opacity="0.6"/>
<path fill-rule="evenodd" clip-rule="evenodd" d="M14 2L14 7.45455H12.6931C12.9254 7.15247 13.0636 6.77419 13.0636 6.36363C13.0636 5.37454 12.2618 4.57272 11.2727 4.57272C10.2836 4.57272 9.48177 5.37454 9.48177 6.36363C9.48177 6.77419 9.61991 7.15247 9.85226 7.45455H8.54541V2H14ZM11.8182 7.30856C12.1442 7.11992 12.3636 6.76739 12.3636 6.36363C12.3636 5.76114 11.8752 5.27272 11.2727 5.27272C10.6702 5.27272 10.1818 5.76114 10.1818 6.36363C10.1818 6.76745 10.4012 7.12003 10.7273 7.30864V8.54541H11.8182V7.30856Z" fill="#40B6E0" fill-opacity="0.6"/>
<path fill-rule="evenodd" clip-rule="evenodd" d="M2 2H7.45455V3.30686C7.15247 3.07452 6.77419 2.93637 6.36363 2.93637C5.37454 2.93637 4.57272 3.73819 4.57272 4.72728C4.57272 5.71637 5.37454 6.51819 6.36363 6.51819C6.77419 6.51819 7.15247 6.38004 7.45455 6.1477L7.45455 7.45454L2 7.45455V2ZM7.30861 4.18184C7.11999 3.85576 6.76743 3.63637 6.36363 3.63637C5.76114 3.63637 5.27272 4.12479 5.27272 4.72728C5.27272 5.32977 5.76114 5.81819 6.36363 5.81819C6.76742 5.81819 7.11996 5.59881 7.30859 5.27275H8.54547V4.18184H7.30861Z" fill="#40B6E0" fill-opacity="0.6"/>
<path fill-rule="evenodd" clip-rule="evenodd" d="M14 8.54541V14L8.54541 14V12.6931C8.84748 12.9255 9.22577 13.0636 9.63632 13.0636C10.6254 13.0636 11.4272 12.2618 11.4272 11.2727C11.4272 10.2836 10.6254 9.48178 9.63632 9.48178C9.22577 9.48178 8.84748 9.61993 8.54541 9.85227V8.54541H14ZM9.63632 12.3636C10.2388 12.3636 10.7272 11.8752 10.7272 11.2727C10.7272 10.6702 10.2388 10.1818 9.63632 10.1818C9.23251 10.1818 8.87994 10.4012 8.69132 10.7273H7.45459V11.8182H8.69139C8.88002 12.1442 9.23256 12.3636 9.63632 12.3636Z" fill="#40B6E0" fill-opacity="0.6"/>
</svg>

<svg width="16" height="16" viewBox="0 0 16 16" fill="none" xmlns="http://www.w3.org/2000/svg"><rect id="frame" width="16" height="16" fill="none"/><path fill-rule="evenodd" clip-rule="evenodd" d="M5.273 8.691a1.09 1.09 0 1 1-1.091 0V7.455h1.09V8.69zm1.245.945a1.79 1.79 0 1 1-3.211-1.09H2V14h5.455V8.545H6.148c.232.302.37.68.37 1.091z" fill="#40B6E0" fill-opacity=".6"/><path fill-rule="evenodd" clip-rule="evenodd" d="M14 2v5.455h-1.307a1.79 1.79 0 1 0-2.84 0H8.544V2H14zm-2.182 5.309a1.09 1.09 0 1 0-1.09 0v1.236h1.09V7.31z" fill="#40B6E0" fill-opacity=".6"/><path fill-rule="evenodd" clip-rule="evenodd" d="M2 2h5.455v1.307a1.79 1.79 0 1 0 0 2.84v1.308H2V2zm5.309 2.182a1.09 1.09 0 1 0 0 1.09h1.236v-1.09H7.31z" fill="#40B6E0" fill-opacity=".6"/><path fill-rule="evenodd" clip-rule="evenodd" d="M14 8.545V14H8.545v-1.307a1.79 1.79 0 1 0 0-2.84V8.544H14zm-4.364 3.819a1.09 1.09 0 1 0-.945-1.637H7.455v1.091H8.69c.189.326.542.546.945.546z" fill="#40B6E0" fill-opacity=".6"/></svg>
